X:10
T:Bonaparte Crossing the Rhine
R: March
Q:90
C: Traditional
M: C
K: D
FG|: "D"A>BAF A2de| f>efa d2dc| "G"B>cdB "D"AFED| "A"E2EF E2FG|
| "D"A>BAF A2de| f>efa d2dc| "G"B>cdB "D"AF"A"EF| [1"D"D2D>E D2FG:|] [2"D"D2D>E D2de|]
|:"D"f>efg a2aA| "G"B>ABc "D"d3A| "G"B>cdB "D"AFDF| "A"E2E>F E2FG|
| "D"A>BAF A2de| f>efa d2dc| "G"B>cdB "D"AF"A"EF| [1"D"D2D>E D2 DE :|]|[2"D"D2D>E D4 |]


